app/assets/images/icons/socal-vk.svg

<svg width="120" height="120" viewBox="0 0 120 120" fill="none" xmlns="http://www.w3.org/2000/svg">
<path d="M115.029 81.0094C111.456 76.7239 107.252 73.0665 103.273 69.1828C99.6843 65.682 99.458 63.6512 102.343 59.6108C105.492 55.201 108.878 50.9603 112.056 46.5704C115.022 42.4677 118.054 38.3763 119.614 33.4641C120.604 30.3389 119.729 28.9585 116.524 28.4113C115.972 28.3156 115.401 28.3106 114.839 28.3106L95.8255 28.2882C93.4838 28.2534 92.1892 29.2744 91.3609 31.35C90.2429 34.1555 89.0901 36.9586 87.7582 39.6659C84.7363 45.8043 81.3611 51.7375 76.6293 56.7617C75.5859 57.8697 74.4318 59.27 72.6883 58.693C70.507 57.8971 69.8641 54.3031 69.9001 53.0881L69.8815 31.1423C69.4587 28.0072 68.7635 26.6094 65.6508 26L45.8999 26.0037C43.2635 26.0037 41.9415 27.0222 40.5338 28.6713C39.7217 29.6238 39.4767 30.2419 41.1456 30.5578C44.4238 31.1796 46.2705 33.3012 46.7605 36.588C47.5464 41.8397 47.4917 47.1126 47.039 52.3855C46.906 53.925 46.6411 55.4609 46.0305 56.8985C45.0754 59.1581 43.5333 59.6182 41.5075 58.2279C39.6732 56.9694 38.3848 55.1935 37.1238 53.4102C32.3869 46.7171 28.6076 39.4993 25.526 31.9146C24.6356 29.7233 23.0997 28.3952 20.7779 28.3591C15.0736 28.2683 9.36792 28.2534 3.66352 28.3641C0.231189 28.4287 -0.792293 30.0952 0.605513 33.2067C6.81854 47.0268 13.7342 60.4626 22.7615 72.7021C27.3964 78.9836 32.7177 84.5288 39.5924 88.4586C47.3835 92.9131 55.7704 94.2537 64.6036 93.8409C68.7399 93.6469 69.9822 92.5711 70.1737 88.4486C70.3031 85.6281 70.6227 82.8238 72.0143 80.2893C73.3797 77.8021 75.4478 77.3283 77.8318 78.8754C79.0244 79.6501 80.0292 80.6363 80.9781 81.676C83.3061 84.2229 85.5508 86.8468 87.9672 89.3079C90.9978 92.3921 94.5881 94.2139 99.1023 93.8421L116.577 93.8458C119.393 93.6618 120.853 90.2095 119.236 87.067C118.101 84.8658 116.611 82.9059 115.029 81.0094Z" fill="black"/>
</svg>

<svg width="120" height="120" fill="none" xmlns="http://www.w3.org/2000/svg"><path d="M115.029 81.01c-3.573-4.286-7.777-7.944-11.756-11.827-3.589-3.501-3.815-5.532-.93-9.572 3.149-4.41 6.535-8.65 9.713-13.04 2.966-4.103 5.998-8.195 7.558-13.107.99-3.125.115-4.505-3.09-5.053-.552-.095-1.123-.1-1.685-.1l-19.013-.023c-2.342-.035-3.637.986-4.465 3.062-1.118 2.806-2.27 5.609-3.603 8.316-3.022 6.138-6.397 12.072-11.129 17.096-1.043 1.108-2.197 2.508-3.94 1.931-2.182-.796-2.825-4.39-2.789-5.605l-.019-21.946c-.422-3.135-1.118-4.533-4.23-5.142l-19.751.004c-2.636 0-3.959 1.018-5.366 2.667-.812.953-1.057 1.57.612 1.887 3.278.622 5.124 2.743 5.614 6.03.786 5.252.732 10.525.279 15.797-.133 1.54-.398 3.076-1.008 4.514-.956 2.26-2.498 2.72-4.523 1.329-1.835-1.259-3.123-3.035-4.384-4.818-4.737-6.693-8.516-13.91-11.598-21.495-.89-2.192-2.426-3.52-4.748-3.556-5.704-.09-11.41-.106-17.114.005C.23 28.43-.792 30.095.606 33.207c6.213 13.82 13.128 27.256 22.156 39.495 4.634 6.282 9.956 11.827 16.83 15.757 7.791 4.454 16.178 5.795 25.012 5.382 4.136-.194 5.378-1.27 5.57-5.392.13-2.82.449-5.625 1.84-8.16 1.366-2.487 3.434-2.96 5.818-1.414 1.192.775 2.197 1.761 3.146 2.801 2.328 2.547 4.573 5.17 6.99 7.632 3.03 3.084 6.62 4.906 11.134 4.534l17.475.004c2.816-.184 4.276-3.636 2.659-6.779-1.135-2.201-2.625-4.161-4.207-6.058z" fill="#000"/></svg>
